assets/icons/24px/outline/stack-horizontal-24px.svg

<svg width="24" height="24" viewBox="0 0 24 24" fill="none" xmlns="http://www.w3.org/2000/svg">
<path d="M8.56381 18.897L8.78191 17.9211L8.56381 18.897ZM16.9067 6.45112L15.9534 6.75298L16.9067 6.45112ZM13.3338 5.59978L12.9339 4.68324L13.3338 5.59978ZM14.7908 5.06582L14.6862 4.07131L14.7908 5.06582ZM7.49007 8.68448L8.32671 9.23223L7.49007 8.68448ZM8 14.9993V14.1818H6V14.9993H8ZM8 14.1818V12.2918H6V14.1818H8ZM11.0003 7.70912L13.7338 6.51632L12.9339 4.68324L10.2004 5.87604L11.0003 7.70912ZM6 14.9993C6 15.8451 5.99889 16.5521 6.05282 17.1106C6.10694 17.6711 6.22686 18.2352 6.57825 18.7158L8.19275 17.5354C8.15864 17.4887 8.08581 17.356 8.04356 16.9184C8.00111 16.4787 8 15.8862 8 14.9993H6ZM11.1834 17.0835C10.3705 17.4382 9.82703 17.6741 9.40708 17.8111C8.98909 17.9473 8.83831 17.9337 8.78191 17.9211L8.34572 19.8729C8.92675 20.0028 9.4917 19.8871 10.0271 19.7125C10.5605 19.5386 11.2081 19.2548 11.9833 18.9165L11.1834 17.0835ZM6.57825 18.7158C7.00762 19.303 7.63575 19.7143 8.34572 19.8729L8.78191 17.9211C8.54525 17.8682 8.33587 17.7311 8.19275 17.5354L6.57825 18.7158ZM18 8C18 7.59174 18.0003 7.25026 17.9872 6.97512C17.9742 6.7011 17.946 6.42059 17.8601 6.14925L15.9534 6.75298C15.9607 6.7763 15.9791 6.85216 15.9895 7.06988C15.9997 7.28647 16 7.57211 16 8H18ZM13.7338 6.51632C14.126 6.34519 14.3879 6.23119 14.5905 6.15398C14.7942 6.07637 14.8711 6.06289 14.8954 6.06034L14.6862 4.07131C14.4031 4.10109 14.1347 4.18738 13.8784 4.28506C13.621 4.38314 13.3081 4.51995 12.9339 4.68324L13.7338 6.51632ZM17.8601 6.14925C17.4299 4.7907 16.1034 3.92223 14.6862 4.07131L14.8954 6.06034C15.3678 6.01064 15.81 6.30013 15.9534 6.75298L17.8601 6.14925ZM8 12.2918C8 11.3174 8.00133 10.6654 8.05553 10.161C8.10715 9.68067 8.19923 9.42695 8.32671 9.23223L6.65343 8.13674C6.29084 8.69056 6.13788 9.28757 6.06698 9.94731C5.99867 10.583 6 11.3603 6 12.2918H8ZM10.2004 5.87604C9.34666 6.24858 8.63368 6.55824 8.07834 6.87511C7.50203 7.20395 7.01602 7.58291 6.65343 8.13674L8.32671 9.23223C8.45419 9.03752 8.64992 8.85164 9.06952 8.61223C9.51009 8.36084 10.1072 8.09882 11.0003 7.70912L10.2004 5.87604Z" fill="white"/>
<path d="M3.34576 16.0465L2.51864 16.6086L3.34576 16.0465ZM4.64468 16.8907L4.46702 17.8748L4.64468 16.8907ZM9.33384 3.59978L8.9339 2.68324L9.33384 3.59978ZM10.7908 3.06582L10.8954 4.06034L10.7908 3.06582ZM12.9067 4.45112L11.9534 4.75298L12.9067 4.45112ZM3.49007 6.68448L4.32671 7.23223L3.49007 6.68448ZM7.00028 5.70912L8.39994 5.09836L7.60006 3.26528L6.20039 3.87604L7.00028 5.70912ZM8.39994 5.09836L9.73379 4.51632L8.9339 2.68324L7.60006 3.26528L8.39994 5.09836ZM4 13.0756V12.1818H2V13.0756H4ZM4 12.1818V10.2918H2V12.1818H4ZM2 13.0756C2 13.877 1.99901 14.5465 2.04735 15.0766C2.09578 15.6076 2.20277 16.1437 2.51864 16.6086L4.17288 15.4845C4.14299 15.4405 4.0771 15.3118 4.03909 14.8949C4.00099 14.4771 4 13.9156 4 13.0756H2ZM7.09386 15.0862C6.32624 15.4274 5.81271 15.6545 5.41542 15.7894C5.01906 15.9239 4.87468 15.916 4.82234 15.9066L4.46702 17.8748C5.0201 17.9746 5.55341 17.8547 6.05837 17.6832C6.56241 17.5121 7.17383 17.2393 7.90614 16.9138L7.09386 15.0862ZM2.51864 16.6086C2.97164 17.2752 3.67384 17.7316 4.46702 17.8748L4.82234 15.9066C4.55795 15.8588 4.32388 15.7067 4.17288 15.4845L2.51864 16.6086ZM9.73379 4.51632C10.126 4.34519 10.3879 4.23119 10.5905 4.15398C10.7942 4.07637 10.8711 4.06289 10.8954 4.06034L10.6862 2.07131C10.4031 2.10109 10.1347 2.18738 9.87836 2.28506C9.62095 2.38314 9.30809 2.51996 8.9339 2.68324L9.73379 4.51632ZM14 6C14 5.59174 14.0003 5.25026 13.9872 4.97512C13.9742 4.7011 13.946 4.42059 13.8601 4.14925L11.9534 4.75298C11.9607 4.7763 11.9791 4.85216 11.9895 5.06988C11.9997 5.28647 12 5.57211 12 6H14ZM10.8954 4.06034C11.3678 4.01064 11.81 4.30013 11.9534 4.75298L13.8601 4.14925C13.4299 2.7907 12.1034 1.92223 10.6862 2.07131L10.8954 4.06034ZM6.20039 3.87604C5.34666 4.24858 4.63368 4.55824 4.07834 4.87511C3.50203 5.20395 3.01602 5.58291 2.65343 6.13674L4.32671 7.23223C4.45419 7.03752 4.64992 6.85164 5.06952 6.61223C5.51009 6.36084 6.10721 6.09882 7.00028 5.70912L6.20039 3.87604ZM4 10.2918C4 9.31743 4.00133 8.66535 4.05553 8.16101C4.10715 7.68067 4.19923 7.42695 4.32671 7.23223L2.65343 6.13674C2.29084 6.69056 2.13788 7.28757 2.06698 7.94731C1.99867 8.58303 2 9.36035 2 10.2918H4Z" fill="white"/>
<path d="M12.0674 20.7144L12.5337 19.8298L12.0674 20.7144ZM11.7514 20.5075L11.1271 21.2887L11.7514 20.5075ZM20.5099 17.3155L19.6733 16.7678L20.5099 17.3155ZM20.4235 7.64998L19.7117 8.35241L20.4235 7.64998ZM19.7183 7.18829L20.0774 6.25501L19.7183 7.18829ZM11.4901 10.6845L12.3267 11.2322L11.4901 10.6845ZM20 11.4553V13.7082H22V11.4553H20ZM16.9997 18.2909L15.9326 18.7565L16.7325 20.5896L17.7996 20.124L16.9997 18.2909ZM15.0003 9.70912L16.3999 9.09836L15.6001 7.26528L14.2004 7.87604L15.0003 9.70912ZM12 16.1818V14.2918H10V16.1818H12ZM15.9326 18.7565C14.7673 19.265 13.9869 19.6032 13.3918 19.7726C12.8085 19.9386 12.6205 19.8755 12.5337 19.8298L11.6011 21.5991C12.3653 22.0018 13.1718 21.9147 13.9393 21.6962C14.695 21.4811 15.6217 21.0743 16.7325 20.5896L15.9326 18.7565ZM10 16.1818C10 17.3938 9.99782 18.4059 10.1029 19.1845C10.2096 19.9753 10.4523 20.7494 11.1271 21.2887L12.3757 19.7263C12.2991 19.6651 12.1661 19.518 12.0849 18.917C12.0022 18.3038 12 17.4533 12 16.1818H10ZM12.5337 19.8298C12.4779 19.8004 12.425 19.7657 12.3757 19.7263L11.1271 21.2887C11.2749 21.4069 11.4337 21.5108 11.6011 21.5991L12.5337 19.8298ZM20 13.7082C20 14.6826 19.9987 15.3346 19.9445 15.839C19.8928 16.3193 19.8008 16.5731 19.6733 16.7678L21.3466 17.8633C21.7092 17.3094 21.8621 16.7124 21.933 16.0527C22.0013 15.417 22 14.6397 22 13.7082H20ZM17.7996 20.124C18.6533 19.7514 19.3663 19.4418 19.9217 19.1249C20.498 18.7961 20.984 18.4171 21.3466 17.8633L19.6733 16.7678C19.5458 16.9625 19.3501 17.1484 18.9305 17.3878C18.4899 17.6392 17.8928 17.9012 16.9997 18.2909L17.7996 20.124ZM22 11.4553C22 10.4072 22.0017 9.5315 21.921 8.84906C21.8396 8.1601 21.6568 7.47606 21.1352 6.94754L19.7117 8.35241C19.7667 8.40805 19.8721 8.55294 19.9348 9.08374C19.9983 9.62107 20 10.356 20 11.4553H22ZM16.3999 9.09836C17.4075 8.6587 18.0818 8.36629 18.5996 8.20958C19.1112 8.05478 19.2862 8.0935 19.3591 8.12157L20.0774 6.25501C19.3844 5.98832 18.6844 6.09437 18.0204 6.29531C17.3626 6.49434 16.5607 6.84608 15.6001 7.26528L16.3999 9.09836ZM21.1352 6.94754C20.8358 6.64418 20.4752 6.40809 20.0774 6.25501L19.3591 8.12157C19.4917 8.1726 19.6119 8.25129 19.7117 8.35241L21.1352 6.94754ZM14.2004 7.87604C13.3467 8.24858 12.6337 8.55824 12.0783 8.87511C11.502 9.20395 11.016 9.58291 10.6534 10.1367L12.3267 11.2322C12.4542 11.0375 12.6499 10.8516 13.0695 10.6122C13.5101 10.3608 14.1072 10.0988 15.0003 9.70912L14.2004 7.87604ZM12 14.2918C12 13.3174 12.0013 12.6654 12.0555 12.161C12.1072 11.6807 12.1992 11.4269 12.3267 11.2322L10.6534 10.1367C10.2908 10.6906 10.1379 11.2876 10.067 11.9473C9.99867 12.583 10 13.3603 10 14.2918H12Z" fill="white"/>
</svg>

<svg width="24" height="24" fill="none" xmlns="http://www.w3.org/2000/svg"><path d="M8.564 18.897l.218-.976-.218.976zm8.343-12.446l-.954.302.954-.302zM13.334 5.6l-.4-.917.4.917zm1.457-.534l-.105-.995.105.995zm-7.3 3.618l.836.548-.837-.548zM8 15v-.817H6v.817h2zm0-.817v-1.89H6v1.89h2zm3-6.473l2.734-1.193-.8-1.833L10.2 5.876l.8 1.833zM6 15c0 .846-.001 1.553.053 2.112.054.56.174 1.124.525 1.605l1.615-1.18c-.034-.047-.107-.18-.15-.618C8.002 16.478 8 15.886 8 15H6zm5.183 2.085c-.813.354-1.356.59-1.776.727-.418.136-.569.123-.625.11l-.436 1.952c.58.13 1.146.014 1.681-.16.534-.174 1.181-.458 1.956-.797l-.8-1.832zm-4.605 1.632a3 3 0 0 0 1.768 1.157l.436-1.952a1 1 0 0 1-.59-.386l-1.614 1.18zM18 8c0-.408 0-.75-.013-1.025a3.225 3.225 0 0 0-.127-.826l-1.907.604c.008.023.026.1.037.317.01.216.01.502.01.93h2zm-4.266-1.484c.392-.17.654-.285.857-.362.203-.078.28-.091.304-.094l-.209-1.989c-.283.03-.551.116-.808.214-.257.098-.57.235-.944.398l.8 1.833zm4.126-.367a3 3 0 0 0-3.174-2.078l.21 1.99a1 1 0 0 1 1.057.692l1.907-.604zM8 12.292c0-.975.001-1.627.056-2.131.051-.48.143-.734.27-.929L6.654 8.137c-.362.554-.515 1.15-.586 1.81C5.999 10.583 6 11.36 6 12.292h2zm2.2-6.416c-.853.373-1.566.682-2.122 1-.576.328-1.062.707-1.425 1.26l1.674 1.096c.127-.194.323-.38.743-.62.44-.251 1.037-.513 1.93-.903l-.8-1.833z" fill="#fff"/><path d="M3.346 16.047l-.827.562.827-.563zm1.299.844l-.178.984.178-.984zM9.334 3.6l-.4-.917.4.917zm1.457-.534l.104.994-.104-.994zm2.116 1.385l-.954.302.954-.302zM3.49 6.684l.837.548-.837-.548zM7 5.71l1.4-.61-.8-1.834-1.4.611.8 1.833zm1.4-.61l1.334-.583-.8-1.833-1.334.582.8 1.833zM4 13.075v-.894H2v.894h2zm0-.894v-1.89H2v1.89h2zm-2 .894c0 .801-.001 1.47.047 2 .049.532.156 1.068.472 1.533l1.654-1.125c-.03-.043-.096-.172-.134-.59-.038-.417-.039-.978-.039-1.818H2zm5.094 2.01c-.768.341-1.281.569-1.679.703-.396.135-.54.127-.593.118l-.355 1.968c.553.1 1.086-.02 1.591-.192.504-.17 1.116-.444 1.848-.77l-.812-1.827zM2.519 16.61a3 3 0 0 0 1.948 1.266l.355-1.968a1 1 0 0 1-.65-.422L2.52 16.608zM9.734 4.516c.392-.17.654-.285.857-.362.203-.078.28-.091.304-.094l-.209-1.989c-.283.03-.551.116-.808.214-.257.098-.57.235-.944.398l.8 1.833zM14 6c0-.408 0-.75-.013-1.025a3.225 3.225 0 0 0-.127-.826l-1.907.604c.008.023.026.1.037.317.01.216.01.502.01.93h2zm-3.105-1.94a1 1 0 0 1 1.058.693l1.907-.604a3 3 0 0 0-3.174-2.078l.21 1.99zM6.2 3.876c-.853.373-1.566.682-2.122 1-.576.328-1.062.707-1.425 1.26l1.674 1.096c.127-.194.323-.38.743-.62C5.51 6.361 6.107 6.1 7 5.71l-.8-1.833zM4 10.292c0-.975.001-1.627.056-2.131.051-.48.143-.734.27-.929L2.654 6.137c-.362.554-.515 1.15-.586 1.81C1.999 8.583 2 9.36 2 10.292h2zm8.067 10.422l.467-.884-.467.884zm-.316-.206l-.624.78.624-.78zm8.759-3.192l-.837-.548.837.547zm-.087-9.666l-.711.702.712-.702zm-.705-.462l.36-.933-.36.933zm-8.228 3.497l.837.547-.837-.547zm8.51.77v2.253h2v-2.253h-2zm-3 6.836l-1.067.465.8 1.834 1.067-.466-.8-1.833zm-2-8.582l1.4-.61-.8-1.834-1.4.611.8 1.833zm-3 6.473v-1.89h-2v1.89h2zm3.933 2.575c-1.166.508-1.946.846-2.541 1.016-.583.166-.771.102-.858.057L11.6 21.6c.764.402 1.57.315 2.338.096.756-.215 1.683-.622 2.794-1.106l-.8-1.834zM10 16.181c0 1.212-.002 2.224.103 3.003.107.79.35 1.564 1.024 2.104l1.249-1.563c-.077-.06-.21-.208-.291-.809-.083-.613-.085-1.464-.085-2.735h-2zm2.534 3.648a1 1 0 0 1-.158-.104l-1.249 1.563a3 3 0 0 0 .474.31l.933-1.77zM20 13.708c0 .975-.001 1.627-.055 2.131-.052.48-.144.734-.272.929l1.674 1.095c.362-.554.515-1.15.586-1.81.068-.636.067-1.413.067-2.345h-2zm-2.2 6.416c.853-.373 1.566-.682 2.122-1 .576-.328 1.062-.707 1.425-1.26l-1.674-1.096c-.127.194-.323.38-.742.62-.441.251-1.038.513-1.931.903l.8 1.833zm4.2-8.669c0-1.048.002-1.924-.079-2.606-.081-.689-.264-1.373-.786-1.901l-1.423 1.404c.055.056.16.2.223.732.063.537.065 1.272.065 2.371h2zm-5.6-2.357c1.008-.44 1.682-.732 2.2-.888.511-.155.686-.117.76-.088l.717-1.867c-.693-.267-1.393-.16-2.057.04-.657.2-1.46.551-2.42.97l.8 1.833zm4.735-2.15a3 3 0 0 0-1.058-.693l-.718 1.867a1 1 0 0 1 .353.23l1.423-1.404zm-6.935.928c-.853.373-1.566.682-2.122 1-.576.328-1.062.707-1.425 1.26l1.674 1.096c.127-.194.323-.38.742-.62.441-.251 1.038-.513 1.931-.903l-.8-1.833zM12 14.292c0-.975.001-1.627.056-2.131.051-.48.143-.734.27-.929l-1.673-1.095c-.362.554-.515 1.15-.586 1.81-.068.636-.067 1.413-.067 2.345h2z" fill="#fff"/></svg>
